logo/kickstarter-icon.svg

<?xml version="1.0" encoding="UTF-8"?>
<svg width="256px" height="290px" viewBox="0 0 256 290" version="1.1" xmlns="http://www.w3.org/2000/svg" xmlns:xlink="http://www.w3.org/1999/xlink" preserveAspectRatio="xMidYMid">
    <g fill="#05CE78">
        <path d="M209.302,144.583 L235.582,118.478 C262.806,91.436 262.806,47.391 235.582,20.349 C208.358,-6.694 164.018,-6.694 136.794,20.349 L127.225,29.853 C114.557,11.781 93.667,0 69.812,0 C31.267,0 0,31.059 0,69.346 L0,219.686 C0,257.973 31.267,289.032 69.812,289.032 C93.667,289.032 114.557,277.251 127.225,259.178 L136.794,268.683 C164.018,295.726 208.358,295.726 235.582,268.683 C262.806,241.641 262.806,197.597 235.582,170.554 L209.302,144.583"></path>
    </g>
</svg>

<svg viewBox="0 0 256 290" xmlns="http://www.w3.org/2000/svg"><path fill="#05CE78" d="M209.3 144.583l26.28-26.11c27.22-27.05 27.22-71.09 0-98.13 -27.23-27.05-71.57-27.05-98.79-.001l-9.57 9.5C114.55 11.76 93.66-.02 69.8-.02 31.26-.02-.01 31.04-.01 69.33v150.34c0 38.28 31.267 69.34 69.812 69.34 23.85 0 44.74-11.79 57.413-29.86l9.56 9.5c27.22 27.04 71.56 27.04 98.78 0 27.22-27.042 27.22-71.09 0-98.13l-26.28-25.98"/></svg>
